X: 1
T: Joe Bane's
M: 4/4
L: 1/8
R: reel
K: Gmaj
|:B3  B B>AA>A|B>AB>c  d>ge>d|B3 B B>AA>A|d2 c>A A>G G2:|
e2a2g2 g>e|d2 B>c d3d|e2a2g2 g>e|d2 c>A A>G G2|
e2a2g2 g>e|d2e2f2g2|a>baf g2  g>e|d2 c>A A>G G2|
